public/assets/img/faq-arrow.svg

<svg width="29" height="29" viewBox="0 0 29 29" fill="none" xmlns="http://www.w3.org/2000/svg">
<path d="M14.5 -1.26763e-06C22.5081 -5.67537e-07 29 6.49187 29 14.5C29 22.5081 22.5081 29 14.5 29C6.49187 29 5.67537e-07 22.5081 1.26763e-06 14.5C0.00879103 6.49551 6.49552 0.0087871 14.5 -1.26763e-06ZM14.5 26.1C20.9065 26.1 26.1 20.9065 26.1 14.5C26.1 8.0935 20.9065 2.9 14.5 2.9C8.0935 2.9 2.9 8.09349 2.9 14.5C2.90719 20.9035 8.09648 26.0928 14.5 26.1ZM14.5725 9.425L21.75 16.6025L19.6997 18.6528L14.5725 13.527L9.4453 18.6528L7.395 16.6025L14.5725 9.425Z" fill="white"/>
</svg>

<svg width="29" height="29" fill="none" xmlns="http://www.w3.org/2000/svg"><path d="M14.5 0C22.508 0 29 6.492 29 14.5S22.508 29 14.5 29 0 22.508 0 14.5C.009 6.496 6.496.009 14.5 0Zm0 26.1c6.407 0 11.6-5.194 11.6-11.6S20.906 2.9 14.5 2.9 2.9 8.093 2.9 14.5c.007 6.404 5.196 11.593 11.6 11.6Zm.072-16.675 7.178 7.177-2.05 2.05-5.127-5.125-5.128 5.126-2.05-2.05 7.178-7.178Z" fill="#fff"/></svg>
